X: 21826
T: Kinnoull
R: reel
M: 4/4
K: Amixolydian
A|f6-fe|fa3f3d|B6-BA|Bcde e3A|f6-fe|fa3f3d
B6-BA|Bcde e3d|1 d8|-d6-d:|2 d8-d6-dd]
B4d3e|e6de|f3gf3d|Bd-d4-dB|B4d3e|e6de|
f2fgf2fd|B2BA B3A|f6-fe|fa3f3d|
B6-BA|Bcdee3A|f6-fe|fa3f3d|
B6-BA|Bcde e3d|d8-|d8||

